docs/styles/img/icons/socialFooter/ig.svg

<svg width="24" height="25" viewBox="0 0 24 25" fill="none" xmlns="http://www.w3.org/2000/svg">
<path fill-rule="evenodd" clip-rule="evenodd" d="M11.8531 0.365234C8.63429 0.365234 8.23033 0.379309 6.9661 0.436841C5.70434 0.49462 4.84308 0.694378 4.08948 0.987472C3.30996 1.2902 2.64871 1.69514 1.98993 2.35417C1.33065 3.01295 0.925702 3.6742 0.621991 4.45348C0.328156 5.20733 0.128151 6.06883 0.0713598 7.3301C0.0148152 8.59433 0 8.99853 0 12.2174C0 15.4362 0.0143213 15.8389 0.0716067 17.1032C0.129633 18.3649 0.329391 19.2262 0.622238 19.9798C0.925208 20.7593 1.33016 21.4206 1.98918 22.0793C2.64772 22.7386 3.30897 23.1446 4.088 23.4473C4.84209 23.7404 5.7036 23.9401 6.96511 23.9979C8.22934 24.0554 8.63305 24.0695 11.8517 24.0695C15.0707 24.0695 15.4735 24.0554 16.7377 23.9979C17.9995 23.9401 18.8617 23.7404 19.6158 23.4473C20.3951 23.1446 21.0553 22.7386 21.7139 22.0793C22.3731 21.4206 22.7781 20.7593 23.0818 19.98C23.3732 19.2262 23.5732 18.3647 23.6324 17.1034C23.6892 15.8392 23.704 15.4362 23.704 12.2174C23.704 8.99853 23.6892 8.59457 23.6324 7.33034C23.5732 6.06858 23.3732 5.20733 23.0818 4.45373C22.7781 3.6742 22.3731 3.01295 21.7139 2.35417C21.0546 1.6949 20.3953 1.28995 19.6151 0.987472C18.8595 0.694378 17.9977 0.49462 16.736 0.436841C15.4717 0.379309 15.0693 0.365234 11.8494 0.365234H11.8531ZM10.7887 2.5049C11.1042 2.50441 11.4564 2.5049 11.8519 2.5049C15.0164 2.5049 15.3915 2.51626 16.6412 2.57305C17.7968 2.62589 18.4239 2.81899 18.8417 2.98121C19.3948 3.19603 19.7891 3.45283 20.2037 3.86765C20.6186 4.28248 20.8753 4.67755 21.0907 5.23065C21.2529 5.64794 21.4462 6.27512 21.4988 7.4307C21.5556 8.68011 21.568 9.05543 21.568 12.2185C21.568 15.3815 21.5556 15.7568 21.4988 17.0062C21.446 18.1618 21.2529 18.789 21.0907 19.2063C20.8758 19.7594 20.6186 20.1532 20.2037 20.5678C19.7889 20.9826 19.3951 21.2394 18.8417 21.4542C18.4244 21.6172 17.7968 21.8098 16.6412 21.8627C15.3918 21.9194 15.0164 21.9318 11.8519 21.9318C8.68715 21.9318 8.31208 21.9194 7.06267 21.8627C5.90708 21.8093 5.27991 21.6162 4.86187 21.454C4.30877 21.2392 3.9137 20.9824 3.49888 20.5676C3.08405 20.1527 2.82725 19.7586 2.61194 19.2053C2.44971 18.788 2.25638 18.1608 2.20378 17.0053C2.14699 15.7558 2.13563 15.3805 2.13563 12.2155C2.13563 9.05049 2.14699 8.67715 2.20378 7.42774C2.25662 6.27215 2.44971 5.64498 2.61194 5.22719C2.82676 4.67409 3.08405 4.27902 3.49888 3.8642C3.9137 3.44937 4.30877 3.19257 4.86187 2.97726C5.27966 2.81429 5.90708 2.6217 7.06267 2.56861C8.15603 2.51923 8.57974 2.50441 10.7887 2.50194V2.5049ZM18.1779 4.47934C17.3927 4.47934 16.7557 5.11565 16.7557 5.9011C16.7557 6.68631 17.3927 7.32336 18.1779 7.32336C18.9631 7.32336 19.6002 6.68631 19.6002 5.9011C19.6002 5.1159 18.9631 4.47884 18.1779 4.47884V4.47934ZM11.8523 6.12772C8.49103 6.12772 5.76578 8.85297 5.76578 12.2143C5.76578 15.5756 8.49103 18.2996 11.8523 18.2996C15.2137 18.2996 17.9379 15.5756 17.9379 12.2143C17.9379 8.85297 15.2134 6.12772 11.8521 6.12772H11.8523ZM11.8502 8.27446C14.032 8.27446 15.801 10.0431 15.801 12.2252C15.801 14.407 14.032 16.1759 11.8502 16.1759C9.66813 16.1759 7.89941 14.407 7.89941 12.2252C7.89941 10.0431 9.66813 8.27446 11.8502 8.27446Z" fill="#AEAEAE"/>
</svg>

<svg width="24" height="25" fill="none" xmlns="http://www.w3.org/2000/svg"><path fill-rule="evenodd" clip-rule="evenodd" d="M11.853.365C8.634.365 8.23.38 6.966.437 5.704.495 4.843.694 4.09.987a5.825 5.825 0 00-2.1 1.367 5.818 5.818 0 00-1.367 2.1C.328 5.206.128 6.068.072 7.33.014 8.594 0 9 0 12.217c0 3.22.014 3.622.072 4.886.058 1.262.257 2.123.55 2.877.303.78.708 1.44 1.367 2.1a5.803 5.803 0 002.099 1.367c.754.293 1.616.493 2.877.55 1.264.058 1.668.073 4.887.073 3.219 0 3.621-.015 4.886-.072 1.262-.058 2.124-.258 2.878-.55a5.799 5.799 0 002.098-1.369 5.818 5.818 0 001.368-2.099c.291-.754.491-1.615.55-2.877.057-1.264.072-1.667.072-4.886 0-3.218-.015-3.622-.072-4.887-.059-1.261-.259-2.123-.55-2.876a5.818 5.818 0 00-1.368-2.1A5.793 5.793 0 0019.615.987c-.755-.293-1.617-.492-2.879-.55-1.264-.058-1.667-.072-4.887-.072h.004zm-1.064 2.14h1.063c3.164 0 3.54.011 4.79.068 1.155.053 1.782.246 2.2.408a3.67 3.67 0 011.362.887c.415.414.671.81.887 1.363.162.417.355 1.044.408 2.2.057 1.25.069 1.624.069 4.788 0 3.163-.012 3.538-.07 4.787-.052 1.156-.245 1.783-.407 2.2a3.665 3.665 0 01-.887 1.362 3.665 3.665 0 01-1.362.886c-.418.163-1.045.356-2.2.409-1.25.056-1.626.069-4.79.069-3.165 0-3.54-.013-4.79-.07-1.155-.053-1.782-.246-2.2-.408a3.67 3.67 0 01-1.363-.886 3.675 3.675 0 01-.887-1.363c-.162-.417-.356-1.044-.408-2.2-.057-1.25-.068-1.624-.068-4.79 0-3.165.011-3.538.068-4.787.053-1.156.246-1.783.408-2.2a3.67 3.67 0 01.887-1.364c.415-.415.81-.671 1.363-.887.418-.163 1.045-.355 2.2-.408 1.094-.05 1.518-.065 3.727-.067v.003zm7.389 1.974a1.422 1.422 0 100 2.845 1.422 1.422 0 000-2.845zm-6.326 1.649a6.087 6.087 0 10.001 12.173 6.087 6.087 0 000-12.173zm-.002 2.146a3.95 3.95 0 110 7.902 3.95 3.95 0 010-7.902z" fill="#AEAEAE"/></svg>
